shader_type canvas_item;

void vertex() {
	// Called for every vertex the material is visible on.
	//if(VERTEX.x )
	//VERTEX.x += cos(TIME + VERTEX.x) * 2.0;
	//VERTEX.y += sin(TIME + VERTEX.y) * 2.0;
}

void fragment() {
	// Called for every pixel the material is visible on.
}

void light() {
	// Called for every pixel for every light affecting the CanvasItem.
}
